X:30
T:Peerie Hoose Ahint da Burn
M:4/4
L:1/8
R:Reel
O:Shetland
K:G
D2|"G"GABc dB G2|"G"gagf "C"e2 dc|"G"BGBd "C"cABG|"Am"ABAG "D"E2D2|
"G"GABc dB G2|!"G"gagf "C"e2 dc|"G"BGBd "D"cAFA|"G"G2 +GB++GB+ +G2B2+:||
g2|"D"fefg af d2|"G"gagf "C"e2 dc|!"G"BGBd "C"cABG|"D"ABAG "D"E2 eg|"D"f
efg af d2|
"G"gagf "C"e2dc|"G"BGBd "D"cAFA|!"G"G2 GG G2 g2|"D"fefg af d2|"G"gagf "C
"e2 dc|"G"BGBd "C"cABG|!"D"ABAG "D"E2 D2|"G"GABc dB G2|"G"gagf "C"e2 dc|
"G"BGBd "D"cAFA|"G"G2 +GB++GB++G2B2+||
